src/images/bnb-pairs/UNI-BNB.svg

<svg width="186" height="171" viewBox="0 0 186 171" fill="none" xmlns="http://www.w3.org/2000/svg">
<path d="M67.045 119.028C63.8667 131.172 82.0449 146.449 107.647 153.149C133.25 159.849 156.581 155.436 159.759 143.291C162.937 131.146 144.759 115.87 119.157 109.169C93.5546 102.469 70.2233 106.883 67.045 119.028Z" fill="#606063"/>
<path d="M155.924 149.273L171.346 132.988L61.9922 104.369L67.7128 126.187L155.924 149.273Z" fill="#606063"/>
<path d="M68.9337 108.293L27.0725 97.338C25.258 96.8632 23.4126 97.9924 23.0096 99.8242L22.5414 101.953C21.6084 106.194 24.1195 110.433 28.2875 111.653L70.0994 123.892L68.9337 108.293Z" fill="#606063"/>
<path d="M62.2026 98.7096C58.5089 112.824 80.5267 130.811 111.381 138.886C142.235 146.96 170.241 142.064 173.935 127.95C177.629 113.836 155.611 95.8488 124.757 87.7742C93.9028 79.6996 65.8963 84.5955 62.2026 98.7096Z" fill="url(#paint0_linear)"/>
<path fill-rule="evenodd" clip-rule="evenodd" d="M146.673 123.286C153.771 128.506 157.919 134.152 158.538 139.157L161.516 138.789C160.744 132.551 155.779 126.258 148.45 120.869C141.061 115.434 131.011 110.721 119.537 107.718C108.063 104.716 96.9927 103.901 87.888 105.019C78.8593 106.128 71.4479 109.182 67.7196 114.242L70.1348 116.021C73.1263 111.961 79.5082 109.071 88.2536 107.997C96.9231 106.933 107.608 107.698 118.777 110.621C129.946 113.544 139.636 118.111 146.673 123.286Z" fill="#606063"/>
<path fill-rule="evenodd" clip-rule="evenodd" d="M75.7343 118.739C67.0136 111.615 63.7365 104.698 65.1049 99.4692C66.4733 94.2403 72.7186 89.8155 83.8112 87.8763C94.6178 85.9872 108.889 86.7226 123.997 90.6764C139.105 94.6302 151.908 100.98 160.403 107.921C169.124 115.045 172.401 121.962 171.033 127.191C169.664 132.42 163.419 136.844 152.326 138.784C141.52 140.673 127.248 139.937 112.14 135.984C97.0323 132.03 84.2301 125.68 75.7343 118.739ZM111.381 138.886C80.5267 130.811 58.5089 112.824 62.2026 98.7096C65.8963 84.5955 93.9028 79.6996 124.757 87.7742C155.611 95.8488 177.629 113.836 173.935 127.95C170.241 142.064 142.235 146.96 111.381 138.886Z" fill="#979797"/>
<path fill-rule="evenodd" clip-rule="evenodd" d="M64.1673 124.049L59.2305 104.926L62.1352 104.176L67.0721 123.299L64.1673 124.049Z" fill="url(#paint1_linear)"/>
<path fill-rule="evenodd" clip-rule="evenodd" d="M62.4691 106.189C62.4241 106.041 62.3812 105.893 62.3406 105.746C62.2656 105.473 62.1983 105.2 62.1386 104.929L61.997 104.389C61.9948 104.38 62.0025 104.372 62.0109 104.375C62.019 104.377 62.0266 104.37 62.0251 104.362C62.0236 104.353 62.0222 104.345 62.0207 104.337C61.9732 104.072 61.9333 103.807 61.9009 103.543C61.8931 103.479 61.8857 103.416 61.8788 103.352C61.8065 102.689 61.7824 102.031 61.8078 101.378C61.8079 101.378 61.8079 101.378 61.8079 101.377C61.8432 100.475 61.9734 99.5849 62.2025 98.7095C65.8962 84.5954 93.9027 79.6994 124.757 87.774C155.611 95.8486 177.629 113.836 173.935 127.95C173.706 128.826 173.383 129.666 172.972 130.469C172.972 130.469 172.972 130.47 172.972 130.47C172.528 131.338 171.981 132.163 171.337 132.945C171.332 132.951 171.326 132.958 171.321 132.964C171.319 132.967 171.318 132.969 171.318 132.972C171.318 132.977 171.322 132.982 171.327 132.983C171.332 132.984 171.335 132.989 171.336 132.993C171.336 132.996 171.335 133 171.333 133.002L170.725 133.644C170.655 133.72 170.584 133.795 170.511 133.87L169.275 135.175L169.273 135.177L157.793 147.299C150.986 156.33 130.197 159.051 107.647 153.149C85.3446 147.312 68.6757 134.967 66.8505 123.854C66.7571 123.285 66.3667 122.8 65.8135 122.639L29.1271 111.91C24.9834 110.698 22.4722 106.499 23.3648 102.275L23.8239 100.103C24.2137 98.2581 26.0655 97.1133 27.8898 97.589L62.1386 106.52C62.3391 106.573 62.5217 106.39 62.4691 106.189ZM58.8119 102.553C58.7482 101.009 58.9029 99.4681 59.3002 97.9499C61.6255 89.0648 71.2303 83.9845 82.7779 81.9658C94.6114 79.8971 109.77 80.751 125.516 84.8718C141.262 88.9926 154.896 95.6738 164.199 103.274C173.277 110.691 179.162 119.825 176.837 128.71C176.28 130.839 175.285 132.774 173.936 134.499C173.821 134.697 173.679 134.887 173.511 135.065L172.923 135.686C172.92 135.689 172.916 135.693 172.913 135.697C172.836 135.779 172.759 135.861 172.68 135.943C172.677 135.946 172.673 135.95 172.67 135.953L160.082 149.246C155.911 154.652 148.056 157.706 138.984 158.802C129.684 159.926 118.467 159.082 106.888 156.051C95.4351 153.054 85.3397 148.366 77.8095 142.91C70.73 137.78 65.4882 131.648 64.0667 125.253L28.285 114.789C22.6362 113.137 19.2128 107.413 20.4296 101.655L20.8887 99.4823C21.6325 95.9628 25.166 93.7783 28.6468 94.6861L58.8119 102.553Z" fill="url(#paint2_linear)"/>
<circle cx="76" cy="29" r="29" fill="#F0B90B"/>
<path d="M65.1846 28.9998L60.7476 33.4676L56.2798 28.9998L60.7476 24.532L65.1846 28.9998ZM75.9998 18.1846L83.6413 25.8261L88.1091 21.3583L80.4676 13.7476L75.9998 9.27979L71.532 13.7476L63.9213 21.3583L68.3891 25.8261L75.9998 18.1846ZM91.252 24.532L86.815 28.9998L91.2828 33.4676L95.7198 28.9998L91.252 24.532ZM75.9998 39.815L68.3583 32.1735L63.9213 36.6413L71.5628 44.2828L75.9998 48.7198L80.4676 44.252L88.1091 36.6105L83.6413 32.1735L75.9998 39.815ZM75.9998 33.4676L80.4676 28.9998L75.9998 24.532L71.532 28.9998L75.9998 33.4676Z" fill="#FFFDFA"/>
<g style="mix-blend-mode:multiply" opacity="0.1">
<circle cx="76" cy="29" r="27.5" stroke="#191326" stroke-width="3"/>
</g>
<path d="M125.5 116C149.524 116 169 96.5244 169 72.5C169 48.4756 149.524 29 125.5 29C101.476 29 82 48.4756 82 72.5C82 96.5244 101.476 116 125.5 116Z" fill="url(#paint3_linear)"/>
<path d="M120.822 69.0888C121.074 68.7538 121.258 68.3723 121.363 67.9661C121.455 67.5734 121.478 67.1679 121.431 66.7673L121.397 66.4719L121.242 66.2813C120.556 65.4654 119.87 64.6963 119.184 63.9273L119.157 63.8972C118.903 63.6127 118.649 63.3282 118.396 63.0411L115.536 59.8505L109.805 53.4846L98.3125 40.7812L109.114 54.0811L114.499 60.7406L117.181 64.076C117.369 64.3122 117.559 64.5495 117.749 64.7871L117.801 64.8524L117.802 64.8536C118.316 65.4955 118.832 66.1405 119.327 66.7768C119.454 66.9416 119.521 67.1453 119.516 67.3537C119.51 67.562 119.434 67.7622 119.299 67.9205C119.171 68.0683 119.012 68.1859 118.834 68.2653C118.656 68.3445 118.463 68.3835 118.268 68.3793C118.073 68.3751 117.881 68.3278 117.707 68.241C117.532 68.1541 117.379 68.0297 117.257 67.8766L106.596 54.6606L114.019 68.071C114.147 68.3021 114.194 68.5697 114.152 68.8309C114.111 69.0922 113.984 69.3319 113.791 69.5118C113.421 69.8508 113.111 70.2511 112.876 70.6955C112.532 71.373 112.298 72.1013 112.182 72.8531C112.104 73.2882 112.054 73.725 112.009 74.1261V74.1264C111.983 74.3507 111.959 74.5636 111.931 74.759C111.609 77.0081 110.152 79.278 108.763 81.0106C108.599 81.2147 108.431 81.4189 108.262 81.6244C107.223 82.8847 106.145 84.1939 105.856 85.8327C105.537 87.6433 105.898 89.5551 106.676 91.2075C106.97 91.8402 107.347 92.4109 107.726 92.9842L107.727 92.9848L107.734 92.9953C107.863 93.1904 107.992 93.3859 108.118 93.5843L108.124 93.5956C108.235 93.785 109.23 95.4901 108.778 95.5588C113.434 94.8232 116.747 92.7171 117.147 90.7101C117.636 88.233 116.151 87.2499 114.805 86.3582C114.323 86.0396 113.86 85.7326 113.51 85.3734C112.774 84.6225 112.22 83.8944 112.102 82.808C111.952 81.398 112.475 80.3452 113.054 79.18L113.055 79.1792L113.056 79.1774C113.164 78.9604 113.273 78.7396 113.381 78.5119C113.909 77.4253 114.255 76.2583 114.404 75.0583C114.429 74.7639 114.446 74.4908 114.462 74.2316V74.2309L114.462 74.2294C114.484 73.8687 114.504 73.5352 114.544 73.2094C114.569 72.9931 114.608 72.7787 114.66 72.5672C114.773 72.1422 115.019 71.7649 115.362 71.4905C115.704 71.2161 116.125 71.0592 116.563 71.0424L116.586 71.0406C116.729 71.0298 116.876 71.0185 117.018 71.0004C117.709 70.9255 118.385 70.7469 119.024 70.4705C119.733 70.1763 120.354 69.6998 120.822 69.0888Z" fill="#FF007A"/>
<path d="M148.776 72.4659L148.765 72.4486C148.591 72.1246 148.393 71.8144 148.173 71.5205C147.524 70.6379 146.594 70.0055 145.537 69.7288C144.834 69.5464 144.115 69.4329 143.389 69.3895C142.867 69.3516 142.337 69.3253 141.802 69.2987L141.781 69.2977L141.755 69.2965C141.554 69.2864 141.351 69.2764 141.149 69.2658C139.631 69.1818 138.077 69.0255 136.559 68.591C136.18 68.4823 135.8 68.3641 135.434 68.2212C135.244 68.1526 135.068 68.0783 134.88 67.9982C134.692 67.9182 134.501 67.8266 134.311 67.7295C133.597 67.3368 132.936 66.8545 132.343 66.2943C131.267 65.2883 130.402 64.1574 129.553 63.0468L129.553 63.0462C129.481 62.9515 129.408 62.8569 129.336 62.7625C128.469 61.5571 127.538 60.3992 126.547 59.2936C125.57 58.2106 124.415 57.3043 123.132 56.6139C121.804 55.9418 120.361 55.528 118.88 55.394C120.416 55.2264 121.971 55.4169 123.422 55.9506C124.887 56.5218 126.225 57.3758 127.363 58.4645C128.106 59.1641 128.803 59.9109 129.45 60.7002C134.269 59.7473 138.178 60.5936 141.181 62.2364L141.249 62.2709C142.205 62.7917 143.101 63.4167 143.921 64.1348C144.052 64.2492 144.181 64.3636 144.3 64.4798C144.94 65.0703 145.535 65.7073 146.082 66.3858L146.123 66.4411C147.898 68.6977 148.774 71.0439 148.776 72.4659Z" fill="#FF007A"/>
<path d="M122.756 75.5933C124.044 75.4695 126.79 74.7967 125.562 72.6257C125.298 72.1842 124.915 71.8262 124.458 71.5933C124 71.3603 123.487 71.2618 122.976 71.3088C122.458 71.3647 121.969 71.5794 121.576 71.9237C121.184 72.268 120.906 72.7255 120.781 73.2338C120.4 74.6537 120.804 75.784 122.756 75.5933Z" fill="#FF007A"/>
<path d="M142.452 78.523L142.453 78.5232C146.732 80.2677 150.839 81.9418 150.668 86.0181C152.566 83.5402 153.382 76.8084 147.796 73.3433C145.429 71.8739 142.72 71.4857 140.197 71.1241H140.196C137.414 70.7254 134.856 70.3587 133.226 68.6108C132.466 74.4522 137.571 76.5334 142.452 78.523Z" fill="#FF007A"/>
<path d="M144.076 64.2661C144.154 64.3359 144.231 64.406 144.308 64.4768C144.22 64.4018 144.131 64.3193 144.041 64.2366C144.004 64.2014 143.966 64.1665 143.928 64.1318C143.971 64.1709 144.014 64.2099 144.057 64.2489L144.076 64.2661Z" fill="#FF007A"/>
<path d="M119.125 56.8086C120.354 56.9878 121.608 57.4796 122.417 58.4173C123.225 59.355 123.523 60.5749 123.756 61.7356C123.788 61.8858 123.818 62.0365 123.849 62.1872L123.849 62.1874C124.002 62.9396 124.155 63.6943 124.449 64.404C124.56 64.6748 124.705 64.9239 124.851 65.1734L124.851 65.1738L124.851 65.1739C124.929 65.3069 125.006 65.4397 125.079 65.5761C125.15 65.7107 125.246 65.8398 125.342 65.9695L125.343 65.9713C125.479 66.1551 125.617 66.3403 125.688 66.5443C125.709 66.5945 125.717 66.6494 125.711 66.7036C125.705 66.7579 125.684 66.8095 125.652 66.8531C125.223 67.3296 124.065 66.7998 123.629 66.5863C122.875 66.2107 122.199 65.6931 121.639 65.0615C119.887 63.1079 118.983 60.2966 119.038 57.7369C119.05 57.426 119.079 57.1163 119.125 56.8086Z" fill="#FF007A"/>
<path d="M142.465 88.2714C140.455 85.3202 138.433 82.3516 139.686 78.8369C140.562 79.4426 141.582 79.9942 142.633 80.5628H142.633C145.343 82.0284 148.262 83.6072 149.473 86.5198C151.395 91.1247 149.196 96.9284 144.564 98.8495C146.948 94.8524 144.714 91.5731 142.465 88.2718L142.465 88.2714Z" fill="#FF007A"/>
<path d="M123.753 88.5757C124.477 88.0276 125.268 87.576 126.107 87.232C126.956 86.8906 127.837 86.6352 128.737 86.4696C129.294 86.3631 129.85 86.2818 130.395 86.2018L130.401 86.2009H130.401C131.601 86.0252 132.754 85.8564 133.772 85.4443C134.506 85.1567 135.18 84.7368 135.763 84.2054C136.327 83.6789 136.758 83.0258 137.023 82.2994C137.293 81.5328 137.403 80.7185 137.345 79.9074C137.278 79.036 137.082 78.1797 136.763 77.3667C137.424 78.0576 137.906 78.9019 138.165 79.8244C138.424 80.7469 138.453 81.7194 138.248 82.6558C138.016 83.647 137.515 84.5542 136.801 85.2764C136.093 85.9763 135.241 86.5101 134.304 86.8394C133.41 87.1544 132.477 87.3468 131.532 87.4111C130.955 87.4594 130.391 87.4855 129.835 87.5113L129.834 87.5114H129.833C129.512 87.5262 129.193 87.541 128.875 87.5598C127.126 87.6336 125.399 87.9762 123.753 88.5757Z" fill="#FF007A"/>
<path d="M140.578 101.802L140.652 101.743L140.712 101.694L140.748 101.666C140.131 101.947 139.489 102.168 138.829 102.323C138.511 102.393 138.189 102.439 137.864 102.462L137.391 102.451C137.239 102.437 137.087 102.416 136.936 102.386C134.566 101.971 134.247 99.5846 133.97 97.517C133.91 97.0634 133.851 96.625 133.773 96.2262C133.628 95.4847 133.401 94.7618 133.098 94.0705C132.761 93.3321 132.286 92.6661 131.697 92.1093C131.103 91.5784 130.421 91.1554 129.682 90.8589C128.977 90.5707 128.237 90.3784 127.482 90.2871C126.013 90.1073 124.524 90.222 123.101 90.6245C121.727 91.0106 120.411 91.5765 119.185 92.3075C117.99 93.0314 116.872 93.8743 115.845 94.8234C115.925 94.7493 116.376 94.828 116.653 94.8764L116.654 94.8766C116.74 94.8916 116.809 94.9037 116.845 94.9072C117.177 94.9491 117.509 94.9988 117.837 95.0673C118.49 95.1917 119.127 95.3899 119.735 95.6582C120.617 96.0885 121.415 96.674 122.091 97.387C122.233 97.5272 122.369 97.6732 122.503 97.8211C122.808 98.2243 123.154 98.5936 123.536 98.9232C123.627 99.0076 123.722 99.0891 123.82 99.1671C124.372 99.6131 125.034 99.9015 125.736 100.002C126.236 100.064 126.743 100.011 127.22 99.8475C127.455 99.7686 127.68 99.6616 127.889 99.5292C128.101 99.3952 128.293 99.2315 128.459 99.0432C128.771 98.6771 128.979 98.2334 129.062 97.7585C129.148 97.3029 129.105 96.8322 128.939 96.3996C128.779 95.9792 128.462 95.6376 128.056 95.4466C128.405 95.6839 128.649 96.0482 128.736 96.4626C128.816 96.859 128.785 97.2701 128.647 97.65C128.521 98.0142 128.298 98.3372 128.003 98.5839C127.863 98.7005 127.706 98.7961 127.538 98.8679C127.37 98.9366 127.194 98.9852 127.015 99.0127C124.903 99.3691 123.247 96.8513 124.4 95.054C124.839 94.3659 125.579 94.0095 126.368 93.9104C128.303 93.6741 129.956 94.9491 130.921 96.533C131.337 97.2145 131.646 97.9524 131.954 98.6901C132.147 99.1511 132.34 99.612 132.559 100.059C133.394 101.765 134.82 103.274 136.839 103.313C137.584 103.319 138.321 103.151 138.991 102.823C139.312 102.673 139.623 102.5 139.918 102.304C140.151 102.148 140.366 101.973 140.578 101.802Z" fill="#FF007A"/>
<g style="mix-blend-mode:multiply" opacity="0.2">
<circle cx="125.5" cy="72.5" r="42.0815" stroke="#191326" stroke-width="2.83696"/>
</g>
<defs>
<linearGradient id="paint0_linear" x1="124.757" y1="87.7742" x2="111.381" y2="138.886" gradientUnits="userSpaceOnUse">
<stop stop-color="#404042"/>
<stop offset="1" stop-color="#48484B"/>
</linearGradient>
<linearGradient id="paint1_linear" x1="65.5673" y1="105.096" x2="60.7353" y2="123.129" gradientUnits="userSpaceOnUse">
<stop stop-color="#404042"/>
<stop offset="1" stop-color="#48484B"/>
</linearGradient>
<linearGradient id="paint2_linear" x1="92.4948" y1="80.1687" x2="108.09" y2="164.62" gradientUnits="userSpaceOnUse">
<stop stop-color="#404042"/>
<stop offset="1" stop-color="#48484B"/>
</linearGradient>
<linearGradient id="paint3_linear" x1="169" y1="29" x2="82" y2="116" gradientUnits="userSpaceOnUse">
<stop stop-color="#FFE8F1"/>
<stop offset="1" stop-color="#FDFEFE"/>
</linearGradient>
</defs>
</svg>

<svg xmlns="http://www.w3.org/2000/svg" xmlns:v="https://vecta.io/nano" width="186" height="171" fill="none"><g fill="#606063"><path d="M67.045 119.028c-3.178 12.144 15 27.421 40.602 34.121s48.934 2.287 52.112-9.858-15-27.421-40.602-34.122-48.934-2.286-52.112 9.859z"/><path d="M155.924 149.273l15.422-16.285-109.354-28.619 5.721 21.818 88.211 23.086z"/><path d="M68.934 108.293L27.073 97.338c-1.815-.475-3.66.654-4.063 2.486l-.468 2.129a8.26 8.26 0 0 0 5.746 9.7l41.812 12.239-1.166-15.599z"/></g><path fill="url(#A)" d="M62.203 98.71c-3.694 14.114 18.324 32.101 49.178 40.176s58.86 3.178 62.554-10.936-18.324-32.101-49.178-40.176-58.861-3.179-62.554 10.935z"/><g fill-rule="evenodd"><path fill="#606063" d="M146.673 123.286c7.098 5.22 11.246 10.866 11.865 15.871l2.978-.368c-.772-6.238-5.737-12.531-13.066-17.92-7.389-5.435-17.439-10.148-28.913-13.151s-22.544-3.817-31.649-2.699c-9.029 1.109-16.44 4.163-20.168 9.223l2.415 1.779c2.992-4.06 9.373-6.95 18.119-8.024 8.67-1.064 19.354-.299 30.523 2.624s20.859 7.49 27.896 12.665z"/><path fill="#979797" d="M75.734 118.739c-8.721-7.124-11.998-14.041-10.629-19.27s7.614-9.654 18.706-11.593c10.807-1.889 25.078-1.154 40.186 2.8s27.911 10.304 36.406 17.245c8.721 7.124 11.998 14.041 10.63 19.27s-7.614 9.653-18.707 11.593c-10.806 1.889-25.078 1.153-40.186-2.8s-27.91-10.304-36.406-17.245zm35.647 20.147c-30.854-8.075-52.872-26.062-49.178-40.176s31.7-19.01 62.554-10.935 52.872 26.062 49.178 40.176-31.7 19.01-62.554 10.936z"/><path fill="url(#B)" d="M64.167 124.049l-4.937-19.123 2.905-.75 4.937 19.123-2.905.75z"/><path fill="url(#C)" d="M62.469 106.189l-.128-.443-.202-.817-.142-.54c.022-.012.03-.019.028-.027l-.004-.025-.12-.794-.022-.191c-.072-.663-.096-1.321-.071-1.974.035-.903.166-1.793.395-2.668 3.694-14.114 31.7-19.01 62.555-10.936s52.872 26.062 49.178 40.176a12.4 12.4 0 0 1-.963 2.519 13.7 13.7 0 0 1-1.635 2.476l-.016.019c.011.02.014.025.015.029l-.611.651-12.932 13.655c-6.807 9.031-27.596 11.752-50.146 5.85-22.302-5.837-38.971-18.182-40.797-29.295-.093-.569-.484-1.054-1.037-1.215L29.127 111.91a8.26 8.26 0 0 1-5.762-9.635l.459-2.172c.39-1.845 2.242-2.99 4.066-2.514l34.249 8.931a.27.27 0 0 0 .331-.331zm-3.657-3.636c-.064-1.544.091-3.085.488-4.603 2.325-8.885 11.93-13.965 23.478-15.984 11.834-2.069 26.992-1.215 42.738 2.906s29.38 10.802 38.683 18.402c9.078 7.417 14.963 16.551 12.638 25.436-.557 2.129-1.552 4.064-2.901 5.789a3.08 3.08 0 0 1-.425.566l-13.429 14.181c-4.171 5.406-12.026 8.46-21.098 9.556-9.3 1.124-20.517.28-32.096-2.751-11.453-2.997-21.548-7.685-29.079-13.141-7.079-5.13-12.321-11.262-13.743-17.657l-35.782-10.464a11.26 11.26 0 0 1-7.855-13.134l.459-2.173c.744-3.519 4.277-5.704 7.758-4.796l30.165 7.867z"/></g><circle cx="76" cy="29" r="29" fill="#f0b90b"/><path fill="#fffdfa" d="M65.185 29l-4.437 4.468L56.28 29l4.468-4.468L65.185 29zM76 18.185l7.642 7.642 4.468-4.468-7.641-7.611L76 9.28 63.921 21.358l4.468 4.468L76 18.185zm15.252 6.347L86.815 29l4.468 4.468L95.72 29l-4.468-4.468zM76 39.815l-7.641-7.642-4.437 4.468L76 48.72l12.109-12.109-4.468-4.437L76 39.815zm0-6.347L80.468 29 76 24.532 71.532 29 76 33.468z"/><circle cx="76" cy="29" r="27.5" stroke="#191326" stroke-width="3" opacity=".1" style="mix-blend-mode:multiply"/><path fill="url(#D)" d="M125.5 116c24.024 0 43.5-19.476 43.5-43.5S149.524 29 125.5 29 82 48.476 82 72.5s19.476 43.5 43.5 43.5z"/><g fill="#ff007a"><path d="M120.822 69.089a3.2 3.2 0 0 0 .541-1.123 3.48 3.48 0 0 0 .068-1.199l-.034-.295-.155-.191-2.085-2.384-.761-.856-2.86-3.191-5.731-6.366-11.493-12.703 16.186 19.959 3.303 4.113 1.525 1.923a.91.91 0 0 1 .189.577c-.006.208-.082.409-.217.567a1.34 1.34 0 0 1-.465.345 1.32 1.32 0 0 1-1.127-.024c-.175-.087-.328-.211-.45-.364l-10.661-13.216 7.423 13.41a1.18 1.18 0 0 1-.228 1.441 4.39 4.39 0 0 0-.915 1.184 7.19 7.19 0 0 0-.694 2.158l-.173 1.273-.078.633c-.322 2.249-1.779 4.519-3.168 6.252l-.501.614c-1.039 1.26-2.117 2.57-2.406 4.208-.319 1.811.042 3.722.82 5.375.294.633.671 1.203 1.05 1.777l.001.001.007.01.384.589.006.011c.111.189 1.106 1.894.654 1.963 4.656-.736 7.969-2.842 8.369-4.849.489-2.477-.996-3.46-2.342-4.352-.482-.319-.945-.626-1.295-.985-.736-.751-1.29-1.479-1.408-2.565-.15-1.41.373-2.463.952-3.628l.001-.001.001-.002.325-.666a11.01 11.01 0 0 0 1.023-3.454l.058-.829.082-1.02a5.18 5.18 0 0 1 .116-.642 2.06 2.06 0 0 1 .702-1.077c.343-.275.763-.431 1.201-.448l.023-.002.432-.04a6.95 6.95 0 0 0 2.006-.53 4.38 4.38 0 0 0 1.798-1.382zm27.954 3.377l-.011-.017a7.36 7.36 0 0 0-.592-.928c-.649-.883-1.579-1.515-2.636-1.792-.703-.182-1.422-.296-2.148-.339l-1.608-.092-.026-.001-.606-.031c-1.518-.084-3.072-.24-4.59-.675l-1.125-.37-.554-.223-.569-.269a9.61 9.61 0 0 1-1.968-1.435c-1.076-1.006-1.941-2.137-2.79-3.248v-.001l-.217-.284a41.52 41.52 0 0 0-2.789-3.469 12.71 12.71 0 0 0-3.415-2.68c-1.328-.672-2.771-1.086-4.252-1.22 1.536-.168 3.091.023 4.542.557 1.465.571 2.803 1.425 3.941 2.514.743.7 1.44 1.446 2.087 2.236 4.819-.953 8.728-.107 11.731 1.536l.068.034a14.81 14.81 0 0 1 2.672 1.864 9.16 9.16 0 0 1 .379.345 17.75 17.75 0 0 1 1.782 1.906l.041.055c1.775 2.257 2.651 4.603 2.653 6.025zm-26.02 3.127c1.288-.124 4.034-.797 2.806-2.968-.264-.441-.647-.799-1.104-1.032s-.971-.332-1.482-.284a2.54 2.54 0 0 0-1.4.615c-.392.344-.67.802-.795 1.31-.381 1.42.023 2.55 1.975 2.359zm19.696 2.93h.001c4.279 1.745 8.386 3.419 8.215 7.495 1.898-2.478 2.714-9.21-2.872-12.675-2.367-1.469-5.076-1.858-7.599-2.219h-.001c-2.782-.399-5.34-.765-6.97-2.513-.76 5.841 4.345 7.923 9.226 9.912z"/><path d="M144.076 64.266l.232.211-.267-.24-.113-.105.148.134zm-24.951-7.457c1.229.179 2.483.671 3.292 1.609s1.106 2.158 1.339 3.318l.093.452c.153.752.306 1.507.6 2.217.111.271.256.52.402.769v.001l.228.402c.071.135.167.264.263.393l.001.002c.136.184.274.369.345.573a.32.32 0 0 1 .023.159c-.006.054-.027.106-.059.15-.429.477-1.587-.053-2.023-.267-.754-.376-1.43-.893-1.99-1.525-1.752-1.954-2.656-4.765-2.601-7.325a8.49 8.49 0 0 1 .087-.928zm23.34 31.462c-2.01-2.951-4.032-5.92-2.779-9.434.876.606 1.896 1.157 2.947 1.726h0c2.71 1.466 5.629 3.044 6.84 5.957 1.922 4.605-.277 10.409-4.909 12.33 2.384-3.997.15-7.276-2.099-10.578h0zm-18.712.305a10.5 10.5 0 0 1 2.354-1.344 13.69 13.69 0 0 1 2.63-.762l1.664-.269c1.2-.176 2.353-.345 3.371-.757a6.44 6.44 0 0 0 1.991-1.239c.564-.526.995-1.18 1.26-1.906a5.93 5.93 0 0 0 .322-2.392 8.81 8.81 0 0 0-.582-2.541 5.84 5.84 0 0 1 1.402 2.458 5.85 5.85 0 0 1 .083 2.831 5.52 5.52 0 0 1-1.447 2.621 6.72 6.72 0 0 1-2.497 1.563c-.894.315-1.827.507-2.772.572l-1.699.1-.958.048a17.06 17.06 0 0 0-5.122 1.016zm16.825 13.226l.074-.059.06-.049.036-.028c-.617.281-1.259.502-1.919.657-.318.07-.64.116-.965.139l-.473-.011-.455-.065c-2.37-.415-2.689-2.801-2.966-4.869l-.197-1.291a10.29 10.29 0 0 0-.675-2.156 6.29 6.29 0 0 0-1.401-1.961 6.84 6.84 0 0 0-2.015-1.25c-.705-.288-1.445-.481-2.2-.572-1.469-.18-2.958-.065-4.381.337a16.2 16.2 0 0 0-3.916 1.683 20.81 20.81 0 0 0-3.34 2.516c.08-.074.531.005.808.053h.001l.191.031.992.16a8.76 8.76 0 0 1 1.898.591 8.2 8.2 0 0 1 2.356 1.729l.412.434a7.16 7.16 0 0 0 1.033 1.102l.284.244a3.94 3.94 0 0 0 1.916.835c.5.062 1.007.009 1.484-.154a3.11 3.11 0 0 0 .669-.318 2.64 2.64 0 0 0 .57-.486c.312-.366.52-.81.603-1.285a2.5 2.5 0 0 0-.123-1.359c-.16-.42-.477-.762-.883-.953.349.237.593.602.68 1.016a2.2 2.2 0 0 1-.089 1.187c-.126.364-.349.687-.644.934-.14.117-.297.212-.465.284a2.31 2.31 0 0 1-.523.145c-2.112.356-3.768-2.161-2.615-3.959.439-.688 1.179-1.044 1.968-1.144 1.935-.236 3.588 1.039 4.553 2.623.416.681.725 1.419 1.033 2.157l.605 1.369c.835 1.706 2.261 3.215 4.28 3.254a4.81 4.81 0 0 0 2.152-.49 7.13 7.13 0 0 0 .927-.519c.233-.156.448-.331.66-.502z"/></g><circle cx="125.5" cy="72.5" r="42.082" stroke="#191326" stroke-width="2.837" opacity=".2" style="mix-blend-mode:multiply"/><defs><linearGradient id="A" x1="124.757" x2="111.381" y1="87.774" y2="138.886" gradientUnits="userSpaceOnUse"><stop stop-color="#404042"/><stop offset="1" stop-color="#48484b"/></linearGradient><linearGradient id="B" x1="65.567" x2="60.735" y1="105.096" y2="123.129" gradientUnits="userSpaceOnUse"><stop stop-color="#404042"/><stop offset="1" stop-color="#48484b"/></linearGradient><linearGradient id="C" x1="92.495" x2="108.09" y1="80.169" y2="164.62" gradientUnits="userSpaceOnUse"><stop stop-color="#404042"/><stop offset="1" stop-color="#48484b"/></linearGradient><linearGradient id="D" x1="169" x2="82" y1="29" y2="116" gradientUnits="userSpaceOnUse"><stop stop-color="#ffe8f1"/><stop offset="1" stop-color="#fdfefe"/></linearGradient></defs></svg>
